X:542
T: KOMM SUESSER SCHLAF
N: F1055
O: Europa, Mitteleuropa, Deutschland
R: Trost - Lied
M: 2/4
L: 1/8
K: Bb
B | BAAc | B3d | ecBA | B2z
d | dedc | cBAB | cdcB | A2z
A | AB2d | dc2e | d4 | c2z
c | fdB_A | Gedc | B2A2 | B2z

@@@ Tune index: 5973
